!!!COM: Emmanuel Chabrier
!!!CNT: Francais
!!!TXO: Francais
!!!OTL: "L'i^le heureuse"
!!!LYR: Mikhae2l
!!!OPR: 
!!!OPS: 
!!!ONM: 
!!!ENC: Emily Thomas
!!!YOR: CD Sheet Music French Art Songs, The Ultimate Collection
!!!YOR: CD Sheet Music, LLC 2003
!!!ODT: 1889/
!!NB: Vocal melody and text encoded.
**kern	**silbe
=0	=0
*clefG2	*
*k[]	*
*M3/4	*
*MM[Animato, molto rubato ed appassionato]	*
2.r	.
=2	=2
2.r	.
=3	=3
2.r	.
=4	=4
2.r	.
=5	=5
2.r	.
=6	=6
2.r	.
=7	=7
2.r	.
=8	=8
4r	.
4r	.
{8cc	{Dans
8b	le
=9	=9
4dd	golfe
8cc	aux
8b	jar-
8g	-dins
8a	om-
=10	=10
[4b	-breux,
8b]}	|}
{8cc	{Des
8dd	coup-
8ee	-les
=11	=11
8dd	blonds
8cc	d'a-
4cc	-mants
8g	heu-
8a	|
=12	=12
[4b	-reux
8.b]}	|}
16r	.
{8b	{Ont
8a	fleu-
=13	=13
8bq	-ri
8a	|
8g	les
4c	ma\ts
12f#	lan-
12g	-gour-
12g#	-eux
=14	=14
[4a	|
6a]}	|}
{12d	{De
12e	ta-
12gn	|
12b	-ga-
=15	=15
2.dd	-le\-
=16	=16
[4g	-re,
8.g]}	|}
16r	.
8r	.
{8f#	{Et,
=17	=17
8g	ca-
8g#	-res-
4a	-se/
12a#	de
12b	doux
12dd	-e/-
=18	=18
2gn}	-te/,}
{8f#	{No-
8g	-tre
=19	=19
8g#	beau
8a	na=
4cc#	-vire
8b	en-
8a	-chan-
=20	=20
2ffn}	-te/,}
{4ee	{Vers
=21	=21
8dd	des
8cc	pa-
4d	-ys
12e	de
12d	vo-
12c	-lup-
=22	=22
4.dd	-te/
8cc	Fend
12a	l'on-
12g	|
12c	-de
=23	=23
2.B	clai-
=24	=24
[4c	-re!
8c]}	|}
8r	.
4r	.
=25	=25
2.r	.
=26	=26
2.r	.
=27	=27
2.r	.
=28	=28
2.r	.
=29	=29
2.r	.
=30	=30
2.r	.
=31	=31
4r	.
8r	.
{4cc	{Vois,
8b	nous
=32	=32
4dd	som-
8cc	-mes
8b	les
8g	sou-
8a	-ve-
=33	=33
4.b}	-rains}
{8cc	{Des
8dd	lu-
8ee	-mi-
=34	=34
8dd	-neux
8cc	de/-
4cc	-serts
8g	ma-
8a	|
=35	=35
2b}	-rins,}
{8b	{Sur
8a	les-
=36	=36
8bq	flots
8a	|
8g	ra-
4cc	-vis
12f#	et-
12g	|
12g#	-se-
=37	=37
[4a	-reins
6a]}	|}
{12d	{Ber-
12e	-cons
12gn	|
12b	nos
=38	=38
2.dd	re\-
=39	=39
[4g	-ves!
8.g]}	|}
16r	.
8r	.
{8f#	{Tes
=40	=40
8g	pa\-
8g#	-les
4a	mains
12a#	ont
12b	le
12dd	pou-
=41	=41
2gn}	-voir}
{8f#	{D'em-
8g	-bau-
=42	=42
8g#	-mer
8a	au
4cc#	loin
8b	l'air
8a	du
=43	=43
2ffn}	soir,}
{4ee	{Et,
=44	=44
8dd	dans
8cc	tes
4d	yeux,
12e	je
12d	crois
12c	re-
=45	=45
4.dd	-voir
8cc	Le
12a	ciel
12g	|
12c	des
=46	=46
2.B	gre\-
=47	=47
[4c	-ves!
8c]}	|}
8r	.
4r	.
=48	=48
2.r	.
=49	=49
2.r	.
=50	=50
2.r	.
=51	=51
2.r	.
=52	=52
2.r	.
=53	=53
2.r	.
=54	=54
2.r	.
=55	=55
4r	.
4r	.
{8cc	{Mais
8b	la\-
=56	=56
8dd	-bas,
8cc	la\-
[8cc	-bas
16cc]}	|}
16r	.
{8g	{au
8a	so-
=57	=57
[4b	-leil,
8b]	|
8cc	Sur-
8dd	-git
8ee	le
=58	=58
8dd	cher
8cc	pa-
4cc	-ys
8g	ver-
8a	|
=59	=59
2b}	-meil}
{8b	{D'ou\
8a	s'e/-
=60	=60
8bq	.
8a	-le\ve
8g	un
4c	chant
12f#	de
12g	|
12g#	re/-
=61	=61
[4a	-veil
6a]}	|}
{12d	{Et
12e	d'al-
12gn	|
12b	-le/-
=62	=62
2.dd	-gres-
=63	=63
[4g	-se;
8.g]}	|}
16r	.
8r	.
{8f#	{C'est
=64	=64
8g	l'ile
8g#	heu-
4a	-reuse
12a#	aux
12b	cieux
12dd	le/-
=65	=65
2gn}	-gers}
{8f#	{Ou\,
8g	par-
=66	=66
8g#	-mi
8a	les
4cc#	lys
8b	e/-
8a	-trans-
=67	=67
2ffn}	-gers,}
{4ee	{Je
=68	=68
8dd	dor-
8cc	-mi-
4d	-rai,
12e	dans
12d	les
12c	ver-
=69	=69
[4dd	-gers,
8dd]}	|}
{8cc	{Sous
12a	ta-
12g	|
12c	ca-
=70	=70
2.B	-res-
=71	=71
[4c	-se!
8c]}	|}
8r	.
4r	.
==	==
*-	*-
